api/icons/Tabler Icons Logo.svg

<svg width="121" height="18" viewBox="0 0 121 18" fill="none" xmlns="http://www.w3.org/2000/svg">
<path d="M13.1699 3.96973H8.37891V17H5.15625V3.96973H0.429688V1.35938H13.1699V3.96973ZM19.7441 17C19.6009 16.7207 19.4971 16.3734 19.4326 15.958C18.6807 16.7959 17.7031 17.2148 16.5 17.2148C15.3613 17.2148 14.416 16.8854 13.6641 16.2266C12.9193 15.5677 12.5469 14.737 12.5469 13.7344C12.5469 12.5026 13.0016 11.5573 13.9111 10.8984C14.8278 10.2396 16.1491 9.90658 17.875 9.89941H19.3037V9.2334C19.3037 8.69629 19.1641 8.2666 18.8848 7.94434C18.6126 7.62207 18.1794 7.46094 17.585 7.46094C17.0622 7.46094 16.6504 7.58626 16.3496 7.83691C16.056 8.08757 15.9092 8.43132 15.9092 8.86816H12.8047C12.8047 8.19499 13.0124 7.57194 13.4277 6.99902C13.8431 6.42611 14.4303 5.97852 15.1895 5.65625C15.9486 5.32682 16.8008 5.16211 17.7461 5.16211C19.1784 5.16211 20.3135 5.52376 21.1514 6.24707C21.9964 6.96322 22.4189 7.97298 22.4189 9.27637V14.3145C22.4261 15.4173 22.5801 16.2516 22.8809 16.8174V17H19.7441ZM17.1768 14.8408C17.6351 14.8408 18.0576 14.7406 18.4443 14.54C18.8311 14.3324 19.1175 14.0566 19.3037 13.7129V11.7148H18.1436C16.5895 11.7148 15.7624 12.252 15.6621 13.3262L15.6514 13.5088C15.6514 13.8955 15.7874 14.2142 16.0596 14.4648C16.3317 14.7155 16.7041 14.8408 17.1768 14.8408ZM35.2773 11.2959C35.2773 13.1579 34.8799 14.6117 34.085 15.6572C33.29 16.6956 32.18 17.2148 30.7549 17.2148C29.4945 17.2148 28.4883 16.7314 27.7363 15.7646L27.5967 17H24.8037V0.5H27.9082V6.41895C28.6243 5.58105 29.5661 5.16211 30.7334 5.16211C32.1514 5.16211 33.2614 5.6849 34.0635 6.73047C34.8727 7.76888 35.2773 9.2334 35.2773 11.124V11.2959ZM32.1729 11.0703C32.1729 9.89583 31.9867 9.04004 31.6143 8.50293C31.2419 7.95866 30.6868 7.68652 29.9492 7.68652C28.9609 7.68652 28.2806 8.09115 27.9082 8.90039V13.4873C28.2878 14.3037 28.9753 14.7119 29.9707 14.7119C30.9733 14.7119 31.6322 14.2178 31.9473 13.2295C32.0977 12.7568 32.1729 12.0371 32.1729 11.0703ZM40.4766 17H37.3613V0.5H40.4766V17ZM48.3936 17.2148C46.6891 17.2148 45.2998 16.6921 44.2256 15.6465C43.1585 14.6009 42.625 13.208 42.625 11.4678V11.167C42.625 9.99967 42.8506 8.95768 43.3018 8.04102C43.7529 7.11719 44.3903 6.4082 45.2139 5.91406C46.0446 5.41276 46.9899 5.16211 48.0498 5.16211C49.6396 5.16211 50.8893 5.66341 51.7988 6.66602C52.7155 7.66862 53.1738 9.09017 53.1738 10.9307V12.1982H45.7725C45.8727 12.9574 46.1735 13.5661 46.6748 14.0244C47.1833 14.4827 47.8242 14.7119 48.5977 14.7119C49.7936 14.7119 50.7282 14.2786 51.4014 13.4121L52.9268 15.1201C52.4613 15.779 51.8311 16.2946 51.0361 16.667C50.2412 17.0322 49.3604 17.2148 48.3936 17.2148ZM48.0391 7.67578C47.4232 7.67578 46.9219 7.88346 46.5352 8.29883C46.1556 8.71419 45.9121 9.30859 45.8047 10.082H50.123V9.83496C50.1087 9.14746 49.9225 8.61751 49.5645 8.24512C49.2064 7.86556 48.6979 7.67578 48.0391 7.67578ZM61.4775 8.28809C61.055 8.23079 60.6826 8.20215 60.3604 8.20215C59.1859 8.20215 58.416 8.59961 58.0508 9.39453V17H54.9463V5.37695H57.8789L57.9648 6.7627C58.5879 5.69564 59.4508 5.16211 60.5537 5.16211C60.8975 5.16211 61.2197 5.20866 61.5205 5.30176L61.4775 8.28809ZM72.0908 17H68.8682V1.35938H72.0908V17ZM79.7178 14.7119C80.2907 14.7119 80.7562 14.5544 81.1143 14.2393C81.4723 13.9242 81.6585 13.5052 81.6729 12.9824H84.584C84.5768 13.7702 84.362 14.4935 83.9395 15.1523C83.5169 15.804 82.9368 16.3125 82.1992 16.6777C81.4688 17.0358 80.6595 17.2148 79.7715 17.2148C78.11 17.2148 76.7995 16.6885 75.8398 15.6357C74.8802 14.5758 74.4004 13.1149 74.4004 11.2529V11.0488C74.4004 9.25846 74.8766 7.82975 75.8291 6.7627C76.7816 5.69564 78.0885 5.16211 79.75 5.16211C81.2038 5.16211 82.3675 5.57747 83.2412 6.4082C84.1221 7.23177 84.5697 8.33105 84.584 9.70605H81.6729C81.6585 9.10449 81.4723 8.61751 81.1143 8.24512C80.7562 7.86556 80.2835 7.67578 79.6963 7.67578C78.973 7.67578 78.4251 7.94076 78.0527 8.4707C77.6875 8.99349 77.5049 9.8457 77.5049 11.0273V11.3496C77.5049 12.5456 77.6875 13.4049 78.0527 13.9277C78.418 14.4505 78.973 14.7119 79.7178 14.7119ZM85.873 11.0811C85.873 9.92806 86.0951 8.90039 86.5391 7.99805C86.9831 7.0957 87.6204 6.39746 88.4512 5.90332C89.2891 5.40918 90.2594 5.16211 91.3623 5.16211C92.9307 5.16211 94.209 5.64193 95.1973 6.60156C96.1927 7.5612 96.7477 8.86458 96.8623 10.5117L96.8838 11.3066C96.8838 13.0898 96.3861 14.5221 95.3906 15.6035C94.3952 16.6777 93.0596 17.2148 91.3838 17.2148C89.708 17.2148 88.3688 16.6777 87.3662 15.6035C86.3708 14.5293 85.873 13.0684 85.873 11.2207V11.0811ZM88.9775 11.3066C88.9775 12.4095 89.1852 13.2546 89.6006 13.8418C90.016 14.4219 90.6104 14.7119 91.3838 14.7119C92.1357 14.7119 92.723 14.4255 93.1455 13.8525C93.568 13.2725 93.7793 12.3486 93.7793 11.0811C93.7793 9.99967 93.568 9.16178 93.1455 8.56738C92.723 7.97298 92.1286 7.67578 91.3623 7.67578C90.6032 7.67578 90.016 7.97298 89.6006 8.56738C89.1852 9.15462 88.9775 10.0677 88.9775 11.3066ZM101.653 5.37695L101.75 6.71973C102.581 5.68132 103.694 5.16211 105.091 5.16211C106.323 5.16211 107.239 5.52376 107.841 6.24707C108.442 6.97038 108.75 8.05176 108.765 9.49121V17H105.66V9.56641C105.66 8.90755 105.517 8.43132 105.23 8.1377C104.944 7.83691 104.468 7.68652 103.802 7.68652C102.928 7.68652 102.273 8.05892 101.836 8.80371V17H98.7314V5.37695H101.653ZM117.423 13.7881C117.423 13.4085 117.233 13.1113 116.854 12.8965C116.481 12.6745 115.88 12.4775 115.049 12.3057C112.285 11.7256 110.902 10.5511 110.902 8.78223C110.902 7.75098 111.328 6.8916 112.181 6.2041C113.04 5.50944 114.161 5.16211 115.543 5.16211C117.018 5.16211 118.196 5.50944 119.077 6.2041C119.965 6.89876 120.409 7.80111 120.409 8.91113H117.305C117.305 8.46712 117.161 8.10189 116.875 7.81543C116.589 7.52181 116.141 7.375 115.532 7.375C115.009 7.375 114.605 7.49316 114.318 7.72949C114.032 7.96582 113.889 8.2666 113.889 8.63184C113.889 8.97559 114.05 9.25488 114.372 9.46973C114.701 9.67741 115.253 9.86003 116.026 10.0176C116.8 10.168 117.451 10.3398 117.981 10.5332C119.621 11.1348 120.441 12.1768 120.441 13.6592C120.441 14.7191 119.987 15.5785 119.077 16.2373C118.168 16.889 116.993 17.2148 115.554 17.2148C114.58 17.2148 113.713 17.043 112.954 16.6992C112.202 16.3483 111.611 15.8721 111.182 15.2705C110.752 14.6618 110.537 14.0065 110.537 13.3047H113.48C113.509 13.8561 113.713 14.2786 114.093 14.5723C114.472 14.8659 114.981 15.0127 115.618 15.0127C116.213 15.0127 116.66 14.9017 116.961 14.6797C117.269 14.4505 117.423 14.1533 117.423 13.7881Z" fill="black"/>
</svg>

<svg width="121" height="18" fill="none" xmlns="http://www.w3.org/2000/svg"><path d="M13.17 3.97H8.379V17H5.156V3.97H.43V1.36h12.74v2.61zM19.744 17a3.45 3.45 0 0 1-.311-1.042c-.752.838-1.73 1.257-2.933 1.257-1.139 0-2.084-.33-2.836-.988-.745-.66-1.117-1.49-1.117-2.493 0-1.231.455-2.177 1.364-2.836.917-.658 2.238-.991 3.964-.999h1.429v-.666c0-.537-.14-.966-.42-1.289-.271-.322-.705-.483-1.299-.483-.523 0-.935.125-1.235.376-.294.25-.44.594-.44 1.031h-3.105c0-.673.207-1.296.623-1.869.415-.573 1.002-1.02 1.761-1.343.76-.33 1.612-.494 2.557-.494 1.432 0 2.568.362 3.405 1.085.845.716 1.268 1.726 1.268 3.03v5.038c.007 1.102.161 1.937.462 2.502V17h-3.137zm-2.567-2.16c.458 0 .88-.1 1.267-.3.387-.208.674-.483.86-.827v-1.998h-1.16c-1.554 0-2.382.537-2.482 1.611l-.01.183c0 .386.135.705.408.956.272.25.644.376 1.117.376zm18.1-3.544c0 1.862-.397 3.316-1.192 4.361-.795 1.039-1.905 1.558-3.33 1.558-1.26 0-2.267-.484-3.019-1.45L27.596 17h-2.792V.5h3.104v5.919c.716-.838 1.658-1.257 2.825-1.257 1.418 0 2.528.523 3.33 1.568.81 1.039 1.214 2.503 1.214 4.394v.172zm-3.104-.226c0-1.174-.186-2.03-.559-2.567-.372-.544-.927-.816-1.665-.816-.988 0-1.668.404-2.04 1.213v4.587c.379.817 1.066 1.225 2.062 1.225 1.002 0 1.661-.494 1.976-1.482.15-.473.226-1.193.226-2.16zM40.477 17H37.36V.5h3.116V17zm7.917.215c-1.705 0-3.094-.523-4.168-1.569-1.068-1.045-1.601-2.438-1.601-4.178v-.301c0-1.167.226-2.21.677-3.126.45-.924 1.088-1.633 1.912-2.127.83-.501 1.776-.752 2.836-.752 1.59 0 2.84.501 3.749 1.504.916 1.003 1.375 2.424 1.375 4.265v1.267h-7.401c.1.76.4 1.368.902 1.826.508.459 1.15.688 1.923.688 1.196 0 2.13-.433 2.803-1.3l1.526 1.708c-.466.659-1.096 1.175-1.89 1.547-.796.365-1.677.548-2.643.548zm-.355-9.54c-.616 0-1.117.208-1.504.624-.38.415-.623 1.01-.73 1.783h4.318v-.247c-.014-.688-.2-1.217-.558-1.59-.359-.38-.867-.57-1.526-.57zm13.438.613a8.432 8.432 0 0 0-1.117-.086c-1.174 0-1.944.398-2.31 1.193V17h-3.104V5.377h2.933l.086 1.386c.623-1.067 1.486-1.6 2.589-1.6.343 0 .666.046.966.139l-.043 2.986zM72.091 17h-3.223V1.36h3.223V17zm7.627-2.288c.573 0 1.038-.158 1.396-.473.358-.315.544-.734.559-1.257h2.911a4.01 4.01 0 0 1-.645 2.17 4.298 4.298 0 0 1-1.74 1.526c-.73.358-1.54.537-2.427.537-1.662 0-2.973-.526-3.932-1.58-.96-1.06-1.44-2.52-1.44-4.382v-.204c0-1.79.477-3.22 1.43-4.286.952-1.067 2.258-1.6 3.92-1.6 1.454 0 2.618.414 3.491 1.245.881.824 1.329 1.923 1.343 3.298h-2.911c-.014-.602-.2-1.088-.559-1.46-.358-.38-.83-.57-1.418-.57-.723 0-1.27.265-1.643.795-.365.522-.548 1.375-.548 2.556v.323c0 1.196.183 2.055.548 2.578.365.522.92.784 1.665.784zm6.155-3.63c0-1.154.222-2.182.666-3.084.444-.902 1.081-1.6 1.912-2.095.838-.494 1.808-.74 2.911-.74 1.569 0 2.847.479 3.835 1.439.996.96 1.55 2.263 1.665 3.91l.022.795c0 1.783-.498 3.215-1.493 4.296-.996 1.075-2.331 1.612-4.007 1.612-1.676 0-3.015-.537-4.018-1.611-.995-1.075-1.493-2.536-1.493-4.383v-.14zm3.105.225c0 1.102.207 1.948.623 2.535.415.58 1.01.87 1.783.87.752 0 1.339-.287 1.761-.86.423-.58.634-1.503.634-2.77 0-1.082-.211-1.92-.633-2.515-.423-.594-1.017-.891-1.784-.891-.759 0-1.346.297-1.761.891-.416.588-.623 1.5-.623 2.74zm12.675-5.93l.097 1.343c.831-1.039 1.944-1.558 3.341-1.558 1.232 0 2.148.362 2.75 1.085.601.723.909 1.805.924 3.244V17h-3.105V9.566c0-.658-.143-1.135-.43-1.428-.286-.301-.762-.451-1.428-.451-.874 0-1.529.372-1.966 1.117V17h-3.105V5.377h2.922zm15.77 8.411c0-.38-.19-.677-.569-.892-.373-.222-.974-.419-1.805-.59-2.764-.58-4.147-1.755-4.147-3.524 0-1.031.426-1.89 1.279-2.578.859-.695 1.98-1.042 3.362-1.042 1.475 0 2.653.347 3.534 1.042.888.695 1.332 1.597 1.332 2.707h-3.104c0-.444-.144-.81-.43-1.096-.286-.293-.734-.44-1.343-.44-.523 0-.927.118-1.214.354a1.12 1.12 0 0 0-.429.903c0 .344.161.623.483.838.329.207.881.39 1.654.548.774.15 1.425.322 1.955.515 1.64.602 2.46 1.644 2.46 3.126 0 1.06-.454 1.92-1.364 2.578-.909.652-2.084.978-3.523.978-.974 0-1.841-.172-2.6-.516-.752-.35-1.343-.827-1.772-1.429-.43-.608-.645-1.263-.645-1.965h2.943c.029.551.233.974.613 1.267.379.294.888.44 1.525.44.595 0 1.042-.11 1.343-.332.308-.23.462-.527.462-.892z" fill="#000"/></svg>
